X: 2
T: Drowsy Maggie
R: reel
M: 4/4
L: 1/8
K: Edor
E2 GE BEGE|(3EEE GE BEGE|D2 FD ADFD|(3DDD FD ADFD|E2 GE BEGE|(3EEE GE BEGE|G2 EF GABc|1dBAF E2 A,C:|2dBAF E2 Bc||d2 fd c2 ec|d2 fd c2 Bc|d2 fd c2 ec|BABc dAFA|d2 fd c2 ec|d2 fd c2 Bc|d2 fd c2 ec|Bdce dAFA:|


Tune 27	Setting 23248

